X:1
T:Le cueur est bon
T:Le cueur est bon
T:(Basse dansse 11)
T:Tielman Susato
C:Tielman Susato
%%score 1 2 3 4
L:1/8
M:3/2
K:C
V:1 treble 
V:2 treble 
V:3 treble 
V:4 treble 
V:1
 G4 F4 D4 | A8 z4 | c4 B4 G4 | d8 d4 | d4 ^c2 B2 c4 | d6 c2 c4 | B2 A2 B2 c2 d2 B2 | c8 z4 | %8
 G4 F4 D4 | A8 z4 | GABc d2 c2 B2 A2 | B8 B4 | B4 B2 A2 G2 ^F2 | G4 A6 G2 | G8 ^F4 | G8 G4 :: %16
 c8 c4 | B8 B4 | GABc d2 c2 B2 A2 | G8 z4 | G4 A4 B4 | c4 d6 c2 | c6 BA B4 | c8 z4 | %24
 GABc d2 c2 B2 A2 | G8 G4 | A4 G2 F2 E2 D2 | E8 z4 | C2 B,2 C2 D2 E2 F2 | G4 c2 B2 A2 G2 | G8 ^F4 | %31
 G8 z4 |"^Segno" G4 F4 D4 | A8 z4 | c4 B4 G4 | d8 d4 | d4 ^c2 B2 c4 | d6 c2 c4 | %38
 B2 A2 B2 c2 d2 B2 | c8 z4 | G4 F4 D4 | A8 z4 | GABc d2 c2 B2 A2 | B8 B4 | B4 B2 A2 G2 F2 | %45
 G4 A6 G2 | G8 ^F4 | G8"^Segno" z4 :| %48
V:2
 C4 A,4 B,4 | C8 z4 | F4 D4 E4 | F4 D6 E2 | F2 G2 A8 | F6 G2 A4 | G2 F2 G8 | E8 z4 | %8
 E4 C2 A,2 D2 B,2 | C8 z4 | D8 G4 | G8 G4 | G4 ^F4 E4- | E4 E4 E4 | C4 D8 | B,8 B,4 :: %16
 C6 D2 E2 ^F2 | G8 G4 | D4 F4 G4 | E8 z4 | E4 E4 G4 | G4 A6 G2 | E2 ^F2 G8 | E8 z4 | D8 D4 | %25
 E8 E4 | C4 G,8 | G,8 z4 | E8 C4 | E8 F4 | D4 D8 | B,8 z4 | C4 A,4 B,4 | C8 z4 | F4 D4 E4 | %35
 F4 D6 E2 | F2 G2 A8 | F6 G2 A4 | G2 F2 G8 | E8 z4 | E4 C2 A,2 D2 B,2 | C8 z4 | D8 G4 | G8 G4 | %44
 G4 ^F4 E4- | E4 E4 E4 | C4 D8 | B,8 B,4 :| %48
V:3
 G,4 D4 B,4 | A,8 z4 | A,4 B,4 C4 | D4 F6 E2 | D4 E8 | D4 F6 E2 | D2 C2 D8 | C8 z4 | %8
 C4 A,2 C2 B,4 | A,8 z4 | B,8 B,4 | D8 D4 | D6 C2 B,2 A,2 | B,4 C6 B,2 | G,4 A,8 | G,8 G,4 :: %16
 E8 C4 | D8 D4 | B,4 A,4 B,4 | C8 z4 | B,4 C4 D4 | E4 F6 E2 | C4 D8 | C8 z4 | B,8 B,4 | B,8 C4 | %26
 A,4 B,8 | C8 z4 | G,4 A,4 G,4 | C8 C4 | B,4 A,8 | G,8 z4 | G,4 D4 B,4 | A,8 z4 | A,4 B,4 C4 | %35
 D4 F6 E2 | D4 E8 | D4 F6 E2 | D2 C2 D8 | C8 z4 | C4 A,2 C2 B,4 | A,8 z4 | B,8 B,4 | D8 D4 | %44
 D6 C2 B,2 A,2 | B,4 C6 B,2 | G,4 A,8 | G,8 z4 :| %48
V:4
 C,4 D,4 G,4 | F,8 z4 | F,4 G,4 E,4 | D,8 D,4 | D,4 A,8 | D,6 E,2 F,4 | G,2 A,2 G,8 | C,8 z4 | %8
 C,4 F,4 G,4 | F,8 z4 | G,8 G,4 | G,8 G,4 | G,4 D,4 E,4 | E,4 A,,2 B,,2 C,2 D,2 | E,4 D,8 | %15
 G,8 G,4 :: A,8 A,4 | G,8 G,4 | G,4 D,4 G,4 | C,8 z4 | E,4 A,4 G,2 F,2 | E,4 D,2 E,2 F,2 G,2 | %22
 A,4 G,8 | C,8 z4 | G,8 G,4 | E,8 C,4 | F,4 E,8 | C,8 z4 | C,8 C,4 | C,8 F,4 | G,4 D,8 | G,,8 z4 | %32
 C,4 D,4 G,4 | F,8 z4 | F,4 G,4 E,4 | D,8 D,4 | D,4 A,8 | D,6 E,2 F,4 | G,2 A,2 G,8 | C,8 z4 | %40
 C,4 F,4 G,4 | F,8 z4 | G,8 G,4 | G,8 G,4 | G,4 D,4 E,4 | E,4 A,,2 B,,2 C,2 D,2 | E,4 D,8 | %47
 G,8 G,4 :| %48

